X: 14772
T: Gan Ainm
R: jig
M: 6/8
K: Amajor
|:B|cBc edc|dcd B2 c|ecA AcA|BGE E2 B|
cBc edc|dcd Bcd|ecA AcB|A3 A2:|
|:e|f/g/ a2 agf|efe c2 e|dcd Bcd|c2 d e2 A|
f/g/ a2 agf|efe c2 d|efe dcB|A3 A2:|

